X: 4
T: The Salamanca
R: reel
M: 4/4
L: 1/8
K: Dmaj
|dB|:AD(3FED AD(3FED|Adcd fdcd|BE~G2 BE~G2|Bded cdeg|fB~B2 fB~B2|fafc deag|fdec dBAG|FGEF D2:||:fg|afde gbeg|fdcd AGFG|Addc defg|a2^gb a2f=g|~a3f ~g3e|~f3d dfag|fdec dBAG|FGEF D2:|


Tune 99	Setting 99

